assets/svg/distribution.svg

<svg width="50px" height="50px" viewBox="0 0 50 50" version="1.1" xmlns="http://www.w3.org/2000/svg" xmlns:xlink="http://www.w3.org/1999/xlink">
    <defs>
        <path d="M18.698323,21.4737126 C19.8422183,20.3298173 19.8845521,18.4327326 18.7397748,17.2879553 L15.3707076,13.9180061 C13.6023883,12.1505688 11.2043533,11.1592516 8.70489353,11.1627794 L2.92808982,11.1698351 C1.31058478,11.171599 0,12.4839477 0,14.1014527 L0,14.1605437 C0,15.7798126 1.31234869,17.0930433 2.93161764,17.0930433 L8.76045668,17.0930433 C9.66534226,17.0930433 10.5331858,17.4519989 11.1734849,18.092298 L14.5548995,21.4737126 C15.6987948,22.6176079 17.5544276,22.6176079 18.698323,21.4737126 M26.555658,29.2463799 C25.4108807,30.3911572 25.3694288,32.2882419 26.5133241,33.4330192 L29.9520658,36.8708789 C31.7089196,38.6277328 34.0893156,39.618168 36.5737821,39.6269875 L37.8067549,39.6313973 C38.5625901,39.6340431 39.1746667,40.2478837 39.1746667,41.0054828 L39.1746667,43.9503298 C39.1746667,44.6558936 39.9825373,45.0554191 40.5434605,44.628553 L49.4212172,37.8577863 C50.1929276,37.2695224 50.1929276,36.107988 49.4212172,35.5197242 L40.5434605,28.7489574 C39.9825373,28.3220913 39.1746667,28.7216168 39.1746667,29.4271807 L39.1746667,32.3490968 C39.1746667,33.1075779 38.5599443,33.7231823 37.8014632,33.7231823 L36.5878934,33.7231823 C35.6830078,33.7231823 34.8151643,33.3624628 34.1748652,32.7230456 L30.6990814,29.2463799 C29.5551861,28.1033666 27.6995533,28.1033666 26.555658,29.2463799 M2.93161764,33.7117169 L8.76045668,33.7117169 C9.66534226,33.7117169 10.5331858,33.3518794 11.1734849,32.7115802 L29.9529477,13.9329994 C31.7089196,12.1761455 34.0893156,11.1857103 36.5737821,11.1768907 L37.8067549,11.1724809 C38.5625901,11.1698351 39.1746667,10.5559946 39.1746667,9.79927737 L39.1746667,6.85354846 C39.1746667,6.14798465 39.9825373,5.74845914 40.5434605,6.1762072 L49.4212172,12.9469739 C50.1929276,13.5352378 50.1929276,14.6958902 49.4212172,15.2841541 L40.5434605,22.0549208 C39.9825373,22.4826688 39.1746667,22.0822614 39.1746667,21.3775795 L39.1746667,18.4547814 C39.1746667,17.6963003 38.5599443,17.0815779 37.8014632,17.0815779 L36.5878934,17.0815779 C35.6830078,17.0815779 34.8151643,17.4414154 34.1748652,18.0808326 L15.3707076,36.8858721 C13.6032703,38.6533095 11.2043533,39.6455086 8.70489353,39.6419807 L2.92808982,39.6340431 C1.31058478,39.6322792 0,38.2608396 0,36.6433345 C0,35.0240656 1.31234869,33.7117169 2.93161764,33.7117169" id="path-1"></path>
    </defs>
</svg>

<svg width="50" height="50" xmlns="http://www.w3.org/2000/svg"><defs><path d="M18.698 21.474c1.144-1.144 1.187-3.041.042-4.186l-3.37-3.37a9.41 9.41 0 00-6.665-2.755l-5.777.007A2.932 2.932 0 000 14.1v.06a2.932 2.932 0 002.932 2.932H8.76c.905 0 1.773.359 2.413 1l3.382 3.38a2.93 2.93 0 004.143 0m7.858 7.773c-1.145 1.145-1.187 3.042-.043 4.187l3.44 3.438a9.412 9.412 0 006.62 2.756l1.234.004a1.373 1.373 0 011.368 1.374v2.945a.852.852 0 001.368.679l8.878-6.771a1.47 1.47 0 000-2.338l-8.878-6.771a.852.852 0 00-1.368.678v2.922c0 .759-.615 1.374-1.374 1.374h-1.213c-.905 0-1.773-.36-2.413-1l-3.476-3.477a2.932 2.932 0 00-4.143 0M2.932 33.712H8.76c.905 0 1.773-.36 2.413-1l18.78-18.779a9.408 9.408 0 016.62-2.756l1.234-.005A1.373 1.373 0 0039.175 9.8V6.854a.852.852 0 011.368-.678l8.878 6.771a1.47 1.47 0 010 2.337l-8.878 6.77a.852.852 0 01-1.368-.676v-2.923c0-.759-.615-1.373-1.374-1.373h-1.213c-.905 0-1.773.36-2.413.999L15.37 36.886a9.41 9.41 0 01-6.666 2.756l-5.777-.008C1.311 39.632 0 38.261 0 36.644a2.931 2.931 0 012.932-2.932" id="path-1"/></defs></svg>
